X: 63
T:Mushrooms
M:6/8
L:1/8
C:Jean Blanchard
S:Carol Entwistle
R:Jig
Z:Steve Mansfield
K:G
g2a | bc'b aba | g3 d2e | =fed c2A | e3 d2e | g2g=f2e | d3 B2c |
|1 ded c2B | A3:|2 ded cBA | G3 |: GBd | g2e d2B | c3 ABc |
=f2e d2c | B3 GBd | g2e d2B | c3 ABc | =fed cBA | G3 :|
<end>
<start>
